website/static/img/logos/nittygritty.svg

<?xml version="1.0" encoding="utf-8"?>
<!-- Generator: Adobe Illustrator 18.0.0, SVG Export Plug-In . SVG Version: 6.00 Build 0)  -->
<!DOCTYPE svg PUBLIC "-//W3C//DTD SVG 1.1//EN" "http://www.w3.org/Graphics/SVG/1.1/DTD/svg11.dtd">
<svg version="1.1" id="Layer_1" xmlns="http://www.w3.org/2000/svg" xmlns:xlink="http://www.w3.org/1999/xlink" x="0px" y="0px"
	 viewBox="0 0 320.6 95.2" enable-background="new 0 0 320.6 95.2" xml:space="preserve">
<polygon fill="#FFA800" points="19,19 19,76.2 38.1,76.2 38.1,38.1 57.1,38.1 76.2,38.1 76.2,19 "/>
<rect x="38.1" y="57.1" fill="#009999" width="19" height="19"/>
<rect x="57.1" y="57.1" fill="#002626" width="19" height="19"/>
<rect x="57.1" y="38.1" fill="#61002B" width="19" height="5.1"/>
<g>
	<path d="M132.1,28.1v4.5h-4.4v-4.5H132.1z M132,37.3v26.1h-4.1V37.3H132z"/>
	<path d="M151.9,60.7v3.2c-1.4,0.2-2.7,0.3-3.7,0.3c-5.1,0-7.6-2.6-7.6-7.9V40.5H136v-3.2h4.6l0.2-6.6l3.8-0.4v6.9h5.8v3.2h-5.8
		v16.4c0,2.7,1.4,4,4.2,4C149.7,60.9,150.7,60.8,151.9,60.7z"/>
	<path d="M168.2,60.7v3.2c-1.4,0.2-2.7,0.3-3.7,0.3c-5.1,0-7.6-2.6-7.6-7.9V40.5h-4.6v-3.2h4.6l0.2-6.6l3.8-0.4v6.9h5.8v3.2h-5.8
		v16.4c0,2.7,1.4,4,4.2,4C166,60.9,167,60.8,168.2,60.7z"/>
	<path d="M190.6,37.3l-10.5,29.2c-1.5,4.2-3.9,6.3-7.3,6.3c-1.1,0-2.2-0.2-3.5-0.5v-3.2c1.1,0.2,2,0.4,2.7,0.4
		c1.3,0,2.4-0.4,3.2-1.1c0.9-0.7,1.7-2.5,2.6-5.4l-9-25.6h4.1l7,19.6l7.1-19.6H190.6z"/>
	<path d="M215.5,33.2v3.2c-1.9,0-3.1,0.2-3.7,0.6c-0.6,0.4-1,1.2-1.3,2.3c1.7,1.9,2.5,4,2.5,6.3c0,2.4-0.9,4.4-2.7,6.1
		c-1.8,1.7-4.3,2.6-7.3,2.6c-0.7,0-1.3-0.1-1.8-0.2c-0.9-0.2-1.5-0.3-1.8-0.3c-0.5,0-1,0.2-1.7,0.7c-0.7,0.5-1,1-1,1.8
		c0,1,0.5,1.7,1.4,2c0.9,0.3,3.2,0.5,6.7,0.6c3,0.1,5.2,0.3,6.6,0.6c1.4,0.3,2.6,1,3.6,2.1c1,1.1,1.5,2.4,1.5,4
		c0,5-4.4,7.5-13.1,7.5c-4.2,0-7.2-0.6-9.1-1.9c-1.9-1.3-2.9-2.9-2.9-5c0-2.5,1.3-4.3,4-5.2c-1.7-1.1-2.6-2.5-2.6-4.2
		c0-2,1.2-3.6,3.6-4.6c-2.3-1.8-3.4-4.1-3.4-6.9c0-2.6,1-4.7,2.9-6.4c1.9-1.7,4.3-2.5,7.1-2.5c2,0,3.7,0.4,5.4,1.1
		c0.3-1.7,0.9-2.9,1.8-3.5c0.9-0.7,2.4-1,4.3-1C214.7,33.2,215,33.2,215.5,33.2z M198.2,62.4c-1.9,0.8-2.8,2-2.8,3.6
		c0,1.3,0.8,2.4,2.3,3.1c1.6,0.7,3.5,1.1,6,1.1c2.2,0,4.3-0.3,6.2-0.9c1.9-0.6,2.8-1.7,2.8-3.2c0-0.8-0.3-1.5-0.8-2
		c-0.6-0.5-1.3-0.8-2.3-1c-1-0.1-2.6-0.2-5-0.3C201.7,62.7,199.6,62.5,198.2,62.4z M203.1,51.3c1.7,0,3.1-0.5,4.2-1.6
		c1.1-1.1,1.6-2.4,1.6-4.1c0-1.7-0.6-3.1-1.7-4.2c-1.1-1.1-2.5-1.6-4.1-1.6c-1.5,0-2.9,0.5-4.1,1.5c-1.2,1-1.8,2.5-1.8,4.4
		c0,1.7,0.5,3.1,1.6,4.1C199.9,50.8,201.3,51.3,203.1,51.3z"/>
	<path d="M223,63.4H219V37.3h3.6v6.1c1.3-2.9,2.5-4.7,3.8-5.6c1.3-0.9,2.6-1.3,3.9-1.3c0.4,0,0.9,0,1.6,0.1v3.9H231
		c-2.2,0-4.1,0.8-5.6,2.5c-1.5,1.7-2.3,3.9-2.4,6.6V63.4z"/>
	<path d="M240.6,28.1v4.5h-4.4v-4.5H240.6z M240.5,37.3v26.1h-4.1V37.3H240.5z"/>
	<path d="M260.4,60.7v3.2c-1.4,0.2-2.7,0.3-3.7,0.3c-5.1,0-7.6-2.6-7.6-7.9V40.5h-4.6v-3.2h4.6l0.2-6.6l3.8-0.4v6.9h5.8v3.2h-5.8
		v16.4c0,2.7,1.4,4,4.2,4C258.2,60.9,259.3,60.8,260.4,60.7z"/>
	<path d="M276.7,60.7v3.2c-1.4,0.2-2.7,0.3-3.7,0.3c-5.1,0-7.6-2.6-7.6-7.9V40.5h-4.6v-3.2h4.6l0.2-6.6l3.8-0.4v6.9h5.8v3.2h-5.8
		v16.4c0,2.7,1.4,4,4.2,4C274.5,60.9,275.6,60.8,276.7,60.7z"/>
	<path d="M299.1,37.3l-10.5,29.2c-1.5,4.2-3.9,6.3-7.3,6.3c-1.1,0-2.2-0.2-3.5-0.5v-3.2c1.1,0.2,2,0.4,2.7,0.4
		c1.3,0,2.4-0.4,3.2-1.1c0.9-0.7,1.7-2.5,2.6-5.4l-9-25.6h4.1l7,19.6l7.1-19.6H299.1z"/>
	<g>
		<path d="M121.2,63.4h-3.8V46.6c0-2.4-0.5-4.1-1.6-5.1s-2.3-1.5-3.8-1.5c-2.1,0-3.8,0.8-5.2,2.5s-2.1,3.8-2.1,6.5v14.3h-4.1V37.3
			h3.8v4.8c2.1-3.7,4.9-5.5,8.3-5.5c1.9,0,3.6,0.5,5,1.5s2.3,2.1,2.8,3.4s0.8,3.5,0.8,6.8V63.4z"/>
	</g>
</g>
<rect x="57.1" y="43.2" fill="#980043" width="19" height="13.9"/>
</svg>

<?xml version="1.0" encoding="UTF-8" standalone="no"?>
<!DOCTYPE svg PUBLIC "-//W3C//DTD SVG 1.1//EN" "http://www.w3.org/Graphics/SVG/1.1/DTD/svg11.dtd">
<svg width="100%" height="100%" viewBox="0 0 168 35" version="1.1" xmlns="http://www.w3.org/2000/svg" xmlns:xlink="http://www.w3.org/1999/xlink" xml:space="preserve" xmlns:serif="http://www.serif.com/" style="fill-rule:evenodd;clip-rule:evenodd;stroke-linejoin:round;stroke-miterlimit:1.41421;">
    <g transform="matrix(0.599786,0,0,0.599786,-11.3959,-11.3959)">
        <path d="M19,19L19,76.2L38.1,76.2L38.1,38.1L76.2,38.1L76.2,19L19,19Z" style="fill:rgb(255,168,0);fill-rule:nonzero;"/>
    </g>
    <g transform="matrix(0.599786,0,0,0.599786,-11.3959,-11.3959)">
        <rect x="38.1" y="57.1" width="19" height="19" style="fill:rgb(0,153,153);"/>
    </g>
    <g transform="matrix(0.599786,0,0,0.599786,-11.3959,-11.3959)">
        <rect x="57.1" y="57.1" width="19" height="19" style="fill:rgb(0,38,38);"/>
    </g>
    <g transform="matrix(0.599786,0,0,0.599786,-11.3959,-11.3959)">
        <rect x="57.1" y="38.1" width="19" height="5.1" style="fill:rgb(97,0,43);"/>
    </g>
    <g transform="matrix(1,0,0,1,-19,-19)">
        <g transform="matrix(0.599786,0,0,0.599786,7.60407,7.60407)">
            <path d="M132.1,28.1L132.1,32.6L127.7,32.6L127.7,28.1L132.1,28.1ZM132,37.3L132,63.4L127.9,63.4L127.9,37.3L132,37.3Z" style="fill-rule:nonzero;"/>
        </g>
        <g transform="matrix(0.599786,0,0,0.599786,7.60407,7.60407)">
            <path d="M151.9,60.7L151.9,63.9C150.5,64.1 149.2,64.2 148.2,64.2C143.1,64.2 140.6,61.6 140.6,56.3L140.6,40.5L136,40.5L136,37.3L140.6,37.3L140.8,30.7L144.6,30.3L144.6,37.2L150.4,37.2L150.4,40.4L144.6,40.4L144.6,56.8C144.6,59.5 146,60.8 148.8,60.8C149.7,60.9 150.7,60.8 151.9,60.7Z" style="fill-rule:nonzero;"/>
        </g>
        <g transform="matrix(0.599786,0,0,0.599786,7.60407,7.60407)">
            <path d="M168.2,60.7L168.2,63.9C166.8,64.1 165.5,64.2 164.5,64.2C159.4,64.2 156.9,61.6 156.9,56.3L156.9,40.5L152.3,40.5L152.3,37.3L156.9,37.3L157.1,30.7L160.9,30.3L160.9,37.2L166.7,37.2L166.7,40.4L160.9,40.4L160.9,56.8C160.9,59.5 162.3,60.8 165.1,60.8C166,60.9 167,60.8 168.2,60.7Z" style="fill-rule:nonzero;"/>
        </g>
        <g transform="matrix(0.599786,0,0,0.599786,7.60407,7.60407)">
            <path d="M190.6,37.3L180.1,66.5C178.6,70.7 176.2,72.8 172.8,72.8C171.7,72.8 170.6,72.6 169.3,72.3L169.3,69.1C170.4,69.3 171.3,69.5 172,69.5C173.3,69.5 174.4,69.1 175.2,68.4C176.1,67.7 176.9,65.9 177.8,63L168.8,37.4L172.9,37.4L179.9,57L187,37.4L190.6,37.4L190.6,37.3Z" style="fill-rule:nonzero;"/>
        </g>
        <g transform="matrix(0.599786,0,0,0.599786,7.60407,7.60407)">
            <path d="M215.5,33.2L215.5,36.4C213.6,36.4 212.4,36.6 211.8,37C211.2,37.4 210.8,38.2 210.5,39.3C212.2,41.2 213,43.3 213,45.6C213,48 212.1,50 210.3,51.7C208.5,53.4 206,54.3 203,54.3C202.3,54.3 201.7,54.2 201.2,54.1C200.3,53.9 199.7,53.8 199.4,53.8C198.9,53.8 198.4,54 197.7,54.5C197,55 196.7,55.5 196.7,56.3C196.7,57.3 197.2,58 198.1,58.3C199,58.6 201.3,58.8 204.8,58.9C207.8,59 210,59.2 211.4,59.5C212.8,59.8 214,60.5 215,61.6C216,62.7 216.5,64 216.5,65.6C216.5,70.6 212.1,73.1 203.4,73.1C199.2,73.1 196.2,72.5 194.3,71.2C192.4,69.9 191.4,68.3 191.4,66.2C191.4,63.7 192.7,61.9 195.4,61C193.7,59.9 192.8,58.5 192.8,56.8C192.8,54.8 194,53.2 196.4,52.2C194.1,50.4 193,48.1 193,45.3C193,42.7 194,40.6 195.9,38.9C197.8,37.2 200.2,36.4 203,36.4C205,36.4 206.7,36.8 208.4,37.5C208.7,35.8 209.3,34.6 210.2,34C211.1,33.3 212.6,33 214.5,33C214.7,33.2 215,33.2 215.5,33.2ZM198.2,62.4C196.3,63.2 195.4,64.4 195.4,66C195.4,67.3 196.2,68.4 197.7,69.1C199.3,69.8 201.2,70.2 203.7,70.2C205.9,70.2 208,69.9 209.9,69.3C211.8,68.7 212.7,67.6 212.7,66.1C212.7,65.3 212.4,64.6 211.9,64.1C211.3,63.6 210.6,63.3 209.6,63.1C208.6,63 207,62.9 204.6,62.8C201.7,62.7 199.6,62.5 198.2,62.4ZM203.1,51.3C204.8,51.3 206.2,50.8 207.3,49.7C208.4,48.6 208.9,47.3 208.9,45.6C208.9,43.9 208.3,42.5 207.2,41.4C206.1,40.3 204.7,39.8 203.1,39.8C201.6,39.8 200.2,40.3 199,41.3C197.8,42.3 197.2,43.8 197.2,45.7C197.2,47.4 197.7,48.8 198.8,49.8C199.9,50.8 201.3,51.3 203.1,51.3Z" style="fill-rule:nonzero;"/>
        </g>
        <g transform="matrix(0.599786,0,0,0.599786,7.60407,7.60407)">
            <path d="M223,63.4L219,63.4L219,37.3L222.6,37.3L222.6,43.4C223.9,40.5 225.1,38.7 226.4,37.8C227.7,36.9 229,36.5 230.3,36.5C230.7,36.5 231.2,36.5 231.9,36.6L231.9,40.5L231,40.5C228.8,40.5 226.9,41.3 225.4,43C223.9,44.7 223.1,46.9 223,49.6L223,63.4Z" style="fill-rule:nonzero;"/>
        </g>
        <g transform="matrix(0.599786,0,0,0.599786,7.60407,7.60407)">
            <path d="M240.6,28.1L240.6,32.6L236.2,32.6L236.2,28.1L240.6,28.1ZM240.5,37.3L240.5,63.4L236.4,63.4L236.4,37.3L240.5,37.3Z" style="fill-rule:nonzero;"/>
        </g>
        <g transform="matrix(0.599786,0,0,0.599786,7.60407,7.60407)">
            <path d="M260.4,60.7L260.4,63.9C259,64.1 257.7,64.2 256.7,64.2C251.6,64.2 249.1,61.6 249.1,56.3L249.1,40.5L244.5,40.5L244.5,37.3L249.1,37.3L249.3,30.7L253.1,30.3L253.1,37.2L258.9,37.2L258.9,40.4L253.1,40.4L253.1,56.8C253.1,59.5 254.5,60.8 257.3,60.8C258.2,60.9 259.3,60.8 260.4,60.7Z" style="fill-rule:nonzero;"/>
        </g>
        <g transform="matrix(0.599786,0,0,0.599786,7.60407,7.60407)">
            <path d="M276.7,60.7L276.7,63.9C275.3,64.1 274,64.2 273,64.2C267.9,64.2 265.4,61.6 265.4,56.3L265.4,40.5L260.8,40.5L260.8,37.3L265.4,37.3L265.6,30.7L269.4,30.3L269.4,37.2L275.2,37.2L275.2,40.4L269.4,40.4L269.4,56.8C269.4,59.5 270.8,60.8 273.6,60.8C274.5,60.9 275.6,60.8 276.7,60.7Z" style="fill-rule:nonzero;"/>
        </g>
        <g transform="matrix(0.599786,0,0,0.599786,7.60407,7.60407)">
            <path d="M299.1,37.3L288.6,66.5C287.1,70.7 284.7,72.8 281.3,72.8C280.2,72.8 279.1,72.6 277.8,72.3L277.8,69.1C278.9,69.3 279.8,69.5 280.5,69.5C281.8,69.5 282.9,69.1 283.7,68.4C284.6,67.7 285.4,65.9 286.3,63L277.3,37.4L281.4,37.4L288.4,57L295.5,37.4L299.1,37.4L299.1,37.3Z" style="fill-rule:nonzero;"/>
        </g>
        <g transform="matrix(0.599786,0,0,0.599786,7.60407,7.60407)">
            <path d="M121.2,63.4L117.4,63.4L117.4,46.6C117.4,44.2 116.9,42.5 115.8,41.5C114.7,40.5 113.5,40 112,40C109.9,40 108.2,40.8 106.8,42.5C105.4,44.2 104.7,46.3 104.7,49L104.7,63.3L100.6,63.3L100.6,37.3L104.4,37.3L104.4,42.1C106.5,38.4 109.3,36.6 112.7,36.6C114.6,36.6 116.3,37.1 117.7,38.1C119.1,39.1 120,40.2 120.5,41.5C121,42.8 121.3,45 121.3,48.3L121.3,63.4L121.2,63.4Z" style="fill-rule:nonzero;"/>
        </g>
    </g>
    <g transform="matrix(0.599786,0,0,0.599786,-11.3959,-11.3959)">
        <rect x="57.1" y="43.2" width="19" height="13.9" style="fill:rgb(152,0,67);"/>
    </g>
</svg>
